X:96
T:Jovial Dancers, The
M:6/8
L:1/8
B:Thompson's Compleat Collection of 200 Favourite Country Dances, vol. 2 (London, 1765)
Z:Transcribed and edited by Flynn Titford-Mock, 2007
Z:abc's:AK/Fiddler's Companion
K:A
e | {d}cBA faf | ecA A2e | (f/g/a)f ecA | (G/A/B)B B2e | {d}cBA faf |
ecA A2f | (g/a/b)g af^d | e(G/A/B) E2 :: E | EGB gbg | af^d eBG |
EGB gbg | af^d e2c | =dfc dBd | cec dBd | cea cdB | A2 [A,A] [A,2A2] :|

